icons/step-2.svg

<svg width="79" height="52" viewBox="0 0 79 52" fill="none" xmlns="http://www.w3.org/2000/svg">
<path d="M5 7.61084H11.6623H48.4412V32.0392C48.4412 33.696 47.0981 35.0392 45.4412 35.0392H30.3634L19.1427 46.2599V35.0392H5C3.34315 35.0392 2 33.696 2 32.0392V10.6108C2 8.95399 3.34315 7.61084 5 7.61084Z" stroke="#1B8CFF" stroke-width="3" stroke-linecap="round"/>
<circle cx="25.887" cy="15.4027" r="3.42854" fill="#B4D6F8"/>
<path fill-rule="evenodd" clip-rule="evenodd" d="M32.9426 25.6885H19.4546C20.0409 22.4966 22.8373 20.0781 26.1986 20.0781C29.5599 20.0781 32.3563 22.4966 32.9426 25.6885Z" fill="#B4D6F8"/>
<path d="M74.1162 2H67.4539H33.675C32.0182 2 30.675 3.34315 30.675 5V26.4284C30.675 28.0852 32.0182 29.4284 33.675 29.4284H48.7528L59.9735 40.649V29.4284H74.1162C75.7731 29.4284 77.1162 28.0852 77.1162 26.4284V5C77.1162 3.34315 75.7731 2 74.1162 2Z" fill="#D9EAFB" stroke="#1B8CFF" stroke-width="3" stroke-linecap="round"/>
<circle cx="53.4285" cy="11.0394" r="3.42854" fill="#1B8CFF"/>
<path fill-rule="evenodd" clip-rule="evenodd" d="M60.4841 21.3247H46.9961C47.5824 18.1328 50.3788 15.7144 53.7401 15.7144C57.1014 15.7144 59.8978 18.1328 60.4841 21.3247Z" fill="#1B8CFF"/>
<circle cx="8.85709" cy="30.0519" r="1.24674" fill="#1B8CFF"/>
<circle cx="13.2209" cy="30.0519" r="1.24674" fill="#1B8CFF"/>
<path d="M7.83105 50H68.8311" stroke="#D9EAFB" stroke-width="3" stroke-linecap="round"/>
</svg>

<svg xmlns="http://www.w3.org/2000/svg" width="79" height="52" fill="none"><path stroke="#1B8CFF" stroke-linecap="round" stroke-width="3" d="M5 7.61h43.442v24.43a3 3 0 0 1-3 3H30.362l-11.22 11.22V35.04H5a3 3 0 0 1-3-3V10.61a3 3 0 0 1 3-3Z"/><circle cx="25.887" cy="15.403" r="3.429" fill="#B4D6F8"/><path fill="#B4D6F8" fill-rule="evenodd" d="M32.943 25.689H19.455a6.86 6.86 0 0 1 13.488 0Z" clip-rule="evenodd"/><path fill="#D9EAFB" stroke="#1B8CFF" stroke-linecap="round" stroke-width="3" d="M74.116 2H33.675a3 3 0 0 0-3 3v21.428a3 3 0 0 0 3 3h15.078l11.22 11.221v-11.22h14.143a3 3 0 0 0 3-3V5a3 3 0 0 0-3-3Z"/><circle cx="53.428" cy="11.039" r="3.429" fill="#1B8CFF"/><path fill="#1B8CFF" fill-rule="evenodd" d="M60.484 21.325H46.996a6.86 6.86 0 0 1 13.488 0Z" clip-rule="evenodd"/><circle cx="8.857" cy="30.052" r="1.247" fill="#1B8CFF"/><circle cx="13.221" cy="30.052" r="1.247" fill="#1B8CFF"/><path stroke="#D9EAFB" stroke-linecap="round" stroke-width="3" d="M7.831 50h61"/></svg>
